X: 15
T: Morrison's
Z: Graham Glendinning
S: https://thesession.org/tunes/71#setting48679
R: jig
M: 6/8
L: 1/8
K: Edor
|:E3 B3|EBE AFD|EDE B3|dcB AFD|
E3 B3|EBE AFD|G3 FGA|1 dAG FED:|2 dAG FGA||
Bee fee|aee fee|Bee fee|a2g fed|
Bee fee|aee fee|gfe d2A|BAG FGA|
Bee fee|aee fee|Bee fee|faf def|
g3 gfe|def g2d|edc d2A|BAG FED|

